X: 9801
T: Bolter Bulgar
O: Klezmer
F: https://www.youtube.com/watch?v=vY1aCpOD_lc
F: https://www.youtube.com/watch?v=q3FjAsUrwrE
F: https://www.youtube.com/watch?v=FJ90rAPJ1Ts
M: 4/4
L: 1/8
K: Fm
CFG|:"Fm"GA AA AG/B/ A/G/F|"C"FG GG G3 =E|\
"Db"=EF FF FE/G/ F/E/D|"C"C4-CC  FG|
"Fm"GA AA AG/B/ A/G/F|"Bbm"=AB BB B3 _A|\
"C"GA =Bc BA/B/ A/G/F|[1"Fm"F4-FC FG:|[2"Fm"F4-FE "Eb"AB|:
"Ab"Bc cc cB/c/ d/c/B|A4 z E AB|\
Bc cc cd ed|c4z F Bc|
"Bbm"cd dd dc/e/ d/c/B|"Fm"=Bc cc c2 _BA|\
"C"GA =Bc BA/B/ A/G/F|[1 F4-FE AB:|[2 "Fm"A4-FC FG|
